packages/bezier-icons/icons/mouse.svg

<svg width="24" height="24" viewBox="0 0 24 24" fill="none" xmlns="http://www.w3.org/2000/svg">
<path fill-rule="evenodd" clip-rule="evenodd" d="M12.2454 2H11.7546C10.2045 2 9.04724 2.27848 8.06946 2.8014C7.09169 3.32432 6.32432 4.09169 5.8014 5.06946C5.27848 6.04724 5 7.20451 5 8.7546V15.2454C5 16.7955 5.27848 17.9528 5.8014 18.9305C6.32432 19.9083 7.09169 20.6757 8.06946 21.1986C9.04724 21.7215 10.2045 22 11.7546 22H12.2454C13.7955 22 14.9528 21.7215 15.9305 21.1986C16.9083 20.6757 17.6757 19.9083 18.1986 18.9305C18.7215 17.9528 19 16.7955 19 15.2454V8.7546C19 7.20451 18.7215 6.04724 18.1986 5.06946C17.6757 4.09169 16.9083 3.32432 15.9305 2.8014C14.9528 2.27848 13.7955 2 12.2454 2ZM11.7546 4H12.2454L12.5361 4.00394C13.5769 4.03281 14.3429 4.22039 14.9873 4.56502C15.6166 4.90155 16.0985 5.38342 16.435 6.01266C16.8109 6.71565 17 7.56344 17 8.7546V15.2454L16.9961 15.5361C16.9672 16.5768 16.7796 17.3429 16.435 17.9873C16.0985 18.6166 15.6166 19.0985 14.9873 19.435C14.2843 19.8109 13.4366 20 12.2454 20H11.7546L11.4639 19.9961C10.4231 19.9672 9.65707 19.7796 9.01266 19.435C8.38342 19.0985 7.90155 18.6166 7.56502 17.9873C7.18906 17.2843 7 16.4366 7 15.2454V8.7546L7.00394 8.46385C7.03281 7.42315 7.22039 6.65707 7.56502 6.01266C7.90155 5.38342 8.38342 4.90155 9.01266 4.56502C9.71565 4.18906 10.5634 4 11.7546 4ZM12 6C11.4477 6 11 6.44772 11 7V10C11 10.5523 11.4477 11 12 11C12.5523 11 13 10.5523 13 10V7C13 6.44772 12.5523 6 12 6Z" fill="#313234"/>
</svg>

<svg xmlns="http://www.w3.org/2000/svg" width="24" height="24" fill="none" viewBox="0 0 24 24"><path fill="#313234" fill-rule="evenodd" d="M12.245 2h-.49c-1.55 0-2.708.278-3.686.801A5.45 5.45 0 0 0 5.801 5.07C5.278 6.047 5 7.205 5 8.755v6.49c0 1.55.278 2.708.801 3.685A5.45 5.45 0 0 0 8.07 21.2c.978.522 2.135.801 3.686.801h.49c1.55 0 2.708-.279 3.686-.801a5.45 5.45 0 0 0 2.268-2.269c.522-.977.801-2.134.801-3.685v-6.49c0-1.55-.279-2.708-.801-3.686a5.45 5.45 0 0 0-2.269-2.268C14.954 2.278 13.797 2 12.246 2m-.49 2h.49l.291.004c1.04.029 1.807.216 2.451.561q.945.504 1.448 1.448c.376.703.565 1.55.565 2.742v6.49l-.004.291c-.029 1.04-.216 1.807-.561 2.451a3.45 3.45 0 0 1-1.448 1.448c-.703.376-1.55.565-2.742.565h-.49l-.291-.004c-1.04-.029-1.807-.216-2.451-.561a3.45 3.45 0 0 1-1.448-1.448C7.189 17.284 7 16.437 7 15.245v-6.49l.004-.291c.029-1.04.216-1.807.561-2.451a3.45 3.45 0 0 1 1.448-1.448C9.716 4.189 10.563 4 11.755 4M12 6a1 1 0 0 0-1 1v3a1 1 0 1 0 2 0V7a1 1 0 0 0-1-1" clip-rule="evenodd"/></svg>
